picto/arrow-pointing-left-and-up-green.svg

<svg class="color-immutable" width="24" height="24" viewBox="0 0 24 24" fill="none" xmlns="http://www.w3.org/2000/svg"><g clip-path="url(#a)"><path d="M0 22.5v-21C0 .675.675 0 1.5 0h21c.825 0 1.5.675 1.5 1.5v21c0 .825-.675 1.5-1.5 1.5h-21C.675 24 0 23.325 0 22.5Z" fill="#237F52"/><path d="m3 3 .195 12.923L7.6 20.328l.194-9.004 7.229 7.23 1.766-1.765 1.765-1.766-7.23-7.229 9.004-.194-4.405-4.405L3 3Z" fill="#fff"/></g><defs><clipPath id="a"><path fill="#fff" d="M0 0h24v24H0z"/></clipPath></defs></svg>

<svg class="color-immutable" width="24" height="24" viewBox="0 0 24 24" fill="none" xmlns="http://www.w3.org/2000/svg"><path d="M0 22.5V1.5C0 0.675 0.675 0 1.5 0H22.5C23.325 0 24 0.675 24 1.5V22.5C24 23.325 23.325 24 22.5 24H1.5C0.675 24 0 23.325 0 22.5Z" fill="#237F52"/><path d="M3 3L3.195 15.923L7.6 20.328L7.794 11.324L15.023 18.554L16.789 16.789L18.554 15.023L11.324 7.794L20.328 7.6L15.923 3.195L3 3Z" fill="white"/></svg>
